!!!!SEGMENT: pl-kk--kk-i-7--029_anonim--alleluia-ave-virgo-maria.krn
!!!cenid: 16xx:819
!!!COM: Anonim
!!!COM-rismid: pe30004985
!!!CDT:
!!!CNT:
!!!OTL: Alleluia ave virgo Maria
!!!PDT:
!!!AGN: Sacred
!!!SMS-siglum: PL-Kk
!!!SMS-shelfmark: Kk.I.7
!!!SMS-shelfwork: 029 W
!!!SMS-variant:
!!!SMS-altvar:
!!!NIFC-rismid: 300258106
!!!URL-scan: http://repozytorium.nifc.pl/skany/pl-kk-nut--i-7
!!!ONB-nifc: UWAGA: C (skan 0018, s.30-31), A (0104-0105, s.29-30), T(0180, s.24), B(0270, s.31). Następny utwór: Venit caeli nuncius
**kern	**text	**kern	**text	**kern	**text	**kern	**text
*part4	*part4	*part3	*part3	*part2	*part2	*part1	*part1
*staff4	*staff4	*staff3	*staff3	*staff2	*staff2	*staff1	*staff1
*Ibass	*	*Itenor	*	*Ialto	*	*Ivox	*
*I"BASSVS.	*	*I"TENOR.	*	*I"ALTVS.	*	*I"CANTVS.	*
*I'B	*	*I'T	*	*I'A	*	*I'S	*
*clefF4	*	*clefC4	*	*clefC4	*	*clefC3	*
*k[]	*	*k[]	*	*k[]	*	*k[]	*
*d:	*	*d:	*	*d:	*	*d:	*
*M2/1	*	*M2/1	*	*M2/1	*	*M2/1	*
*met(C|)	*	*met(C|)	*	*met(C|)	*	*met(C|)	*
=1-	=1-	=1-	=1-	=1-	=1-	=1-	=1-
*2\right	*	*	*	*2\right	*	*2\right	*
*lig	*	*	*	*	*	*	*
*	*	*lig	*	*	*	*	*
!LO:TX:a:i:t=Pro D(omin)ica Pentecoſten\nad Fest(um) S[anctis]S[imae]. Trinitatis	!	!	!	!	!	!	!
!LO:TX:a:t=P:problem:problem z renderowaniem - "\n" nie łamie wersu na dwa wersy	!	!LO:TX:t=P:problem:przed kluczem inicjał A	!	!LO:TX:a:t=P:problem:problem z renderowaniem - "\n" nie łamie wersu na dwa wersy	!	!LO:TX:a:t=P:problem:problem z renderowaniem - "\n" nie łamie wersu na dwa wersy	!
!LO:TX:t=P:problem:przed kluczem inicjał A	!	!	!	!	!	!	!
*	*	*	*	*	*	*	*
!	!	!	!	!LO:TX:a:i:t=A Festo Pentecoſten.\nad Fest(um) S[anctis]S[imae]. Trinitatis.	!	!LO:TX:a:i:t=A D(omi)nica Pentecoſten\nad Festum S[anctis]S[imae]. Trinitatis	!
!	!	!LO:TX:a:t=Pro Sacro Pentecoſten ad Feſtum S(anctis)S(i)mae Trinitatis.	!	!LO:TX:t=P:problem:przed kluczem inicjał A	!	!LO:TX:t=P:problem:przed kluczem inicjał A	!
1C	AL-	1C	AL-	2.G/	A-	1c	AL-
!	!	!	!	!LO:TX:t=P:problem:kreska pseudotaktowa	!	!	!
.	.	.	.	4E/	-L-	.	.
!LO:TX:t=P:problem:kreska pseudotaktowa	!	!	!	!	!	!	!
1F	.	1D	.	4F/	.	2A/	.
.	.	.	.	4G/	.	.	.
!	!	!	!	!LO:TX:t=P:problem:kreska pseudotaktowa	!	!	!
.	.	.	.	2A/	.	1d	-le-
*Xlig	*	*Xlig	*	*	*	*	*
=2-	=2-	=2-	=2-	=2-	=2-	=2-	=2-
*lig	*	*lig	*	*	*	*	*
1E	-le-	1E	-le-	4G/	.	.	.
.	.	.	.	4F/	.	.	.
!	!	!	!	!LO:TX:t=P:problem:kreska pseudotaktowa	!	!LO:TX:t=P:problem:kreska pseudotaktowa	!
.	.	.	.	2G/	.	2c/	.
!LO:TX:t=P:problem:kreska pseudotaktowa	!	!	!	!	!	!	!
*	*	*	*	*	*	*lig	*
1D	.	1F	.	2A/	.	1d	-lu-
.	.	.	.	1d	.	.	.
*Xlig	*	*Xlig	*	*	*	*	*
=3-	=3-	=3-	=3-	=3-	=3-	=3-	=3-
*	*	*lig	*	*	*	*	*
1AA	-lu-	1E	.	.	.	1e	.
!	!	!	!	!LO:TX:t=P:problem:kreska pseudotaktowa	!	!	!
.	.	.	.	2c\	.	.	.
*	*	*	*	*	*	*Xlig	*
2D/	.	1F	.	2d\	-le-	2A/	-ia
*	*	*	*	*	*	*	*ij
!LO:TX:t=P:problem:kreska pseudotaktowa	!	!	!	!	!	!	!
2D/	-ia	.	.	2A/	-lu-	1d	Al-
*	*ij	*Xlig	*	*	*	*	*
=4-	=4-	=4-	=4-	=4-	=4-	=4-	=4-
*	*	*lig	*	*	*	*	*
!	!	!	!	!LO:TX:t=P:problem:kreska pseudotaktowa	!	!	!
2.F\	Al-	1D	.	1A	-ia	.	.
!	!	!	!	!	!	!LO:TX:t=P:problem:kreska pseudotaktowa	!
!	!	!	!	!	!	!LO:TX:t=P:problem:all\right:global	!
.	.	.	.	.	.	2.f\	-le-
!LO:TX:t=P:problem:all\right:global	!	!	!	!	!	!	!
4E\	.	.	.	.	.	.	.
2.D/	.	1F	.	2r	.	.	.
.	.	.	.	.	.	4e\	.
*	*	*	*	*	*ij	*	*
.	.	.	.	1A	Al-	2.d\	-lu-
!LO:TX:t=P:problem:kreska pseudotaktowa	!	!	!	!	!	!	!
4C/	.	.	.	.	.	.	.
*	*	*Xlig	*	*	*	*	*
=5-	=5-	=5-	=5-	=5-	=5-	=5-	=5-
1BB-X	-le-	1D	.	.	.	.	.
.	.	.	.	.	.	4c/	.
!	!	!	!	!	!	!LO:TX:t=P:problem:kreska pseudotaktowa	!
!	!	!	!	!LO:TX:t=P:problem:kreska pseudotaktowa	!	!LO:SIC:v:t=custos c	!
.	.	.	.	2G/	.	2B-X/	.
*	*	*lig	*	*	*	*	*
!	!	!	!	!LO:TX:t=P:problem:kreska pseudotaktowa	!	!	!
!LO:TX:t=P:problem:kreska pseudotaktowa	!	!	!	!LO:SIC:v:t=custos F	!	!LO:LB:g=original	!
1AA	lu-	1C	-lu-	1A	-le-	1c	.
!	!	!	!	!LO:LB:g=original	!	!	!
=6-	=6-	=6-	=6-	=6-	=6-	=6-	=6-
2D/	-ia	1D	.	2F/	.	2A/	-ia
*	*Xij	*	*	*	*	*	*Xij
1GG	Al-	.	.	1B-X	.	1d	Al-
*	*	*Xlig	*	*	*	*	*
.	.	[yy1D	.	.	.	.	.
!LO:TX:t=P:problem:kreska pseudotaktowa	!	!	!	!	!	!LO:TX:t=P:problem:kreska pseudotaktowa	!
2AA/	.	.	.	4A/	.	2c/	-le-
!	!	!	!	!LO:TX:t=P:problem:kreska pseudotaktowa	!	!	!
.	.	.	.	4G/	.	.	.
=7-	=7-	=7-	=7-	=7-	=7-	=7-	=7-
!	!	!LO:N:vis=0	!	!	!	!	!
2BB-/	-le-	00Dl;>]	-ia.	2F/	.	0B-	-lu-
2GG/	.	.	.	2G/	-lu-	.	.
!	!	!	!	!LO:N:vis=0	!	!	!
2.BB-/	-lu-	.	.	0.Fl;>	-ia	.	.
*	*	*	*	*	*Xij	*	*
4C/	-ia.	.	.	.	.	.	.
=8-	=8-	=8-	=8-	=8-	=8-	=8-	=8-
0Dl;>	.	.	.	.	.	0Al;>	-ia
!LO:LB:g=original	!	!	!	!	!	!	!
=9||	=9||	=9||	=9||	=9||	=9||	=9||	=9||
*M2/1	*	*M2/1	*	*M2/1	*	*M2/1	*
*met(C|)	*	*met(C|)	*	*met(C|)	*	*met(C|)	*
!LO:TX:t=P:problem:przed metrum inicjał A	!	!LO:TX:t=P:problem:przed metrum inicjał A	!	!	!	!	!
*	*	*lig	*	*lig	*	*	*
!	!	!LO:TX:t=P:problem:przed metrum inicjał A	!	!LO:TX:t=P:problem:pod metrum inicjał A	!	!LO:TX:t=P:problem:przed metrum inicjał A	!
!	!	!LO:TX:t=P:problem:w źródle brak kreski taktowej; pozostawiono ją nieukrytą, ponieważ w przeciwnym razie nie pokazywałoby się oznaczenie metryczne	!	!	!	!	!
1G	A-	1C	A-	1c	A-	1e	A-
*	*	*	*	*col	*	*	*
2F\	.	1D	.	2.A\	.	2d\	.
*	*	*	*	*Xcol	*	*	*
*	*	*	*	*Xlig	*	*	*
!	!	!	!	!	!	!LO:TX:t=P:problem:kreska pseudotaktowa	!
1D	.	.	.	.	.	2f\	.
!	!	!	!	!LO:TX:t=P:problem:kreska pseudotaktowa	!	!	!
.	.	.	.	4G/	.	.	.
*	*	*Xlig	*	*	*	*	*
=10-	=10-	=10-	=10-	=10-	=10-	=10-	=10-
*	*	*lig	*	*	*	*	*
.	.	1E	.	4A/	.	1e	.
!	!	!	!	!LO:TX:a:t=P:problem:all\right	!	!	!
.	.	.	.	4Bny\	.	.	.
!LO:TX:t=P:problem:kreska pseudotaktowa	!	!	!	!	!	!	!
2C/	.	.	.	2c\	.	.	.
!	!	!	!	!LO:TX:t=P:problem:kreska pseudotaktowa	!	!	!
2.D/	.	1F	.	0A	-ue	2.d\	.
!	!	!	!	!	!	!LO:TX:t=P:problem:kreska pseudotaktowa	!
4E\	.	.	.	.	.	4c/	.
*	*	*Xlig	*	*	*	*	*
=11-	=11-	=11-	=11-	=11-	=11-	=11-	=11-
*	*	*lig	*	*	*	*	*
4F\	.	1D	.	.	.	4d\	.
4G\	.	.	.	.	.	4e\	.
4A\	.	.	.	.	.	1f	-ue
!LO:TX:t=P:problem:kreska pseudotaktowa	!	!	!	!	!	!	!
4F\	.	.	.	.	.	.	.
*	*	*	*	*	*ij	*	*
1G	-ue	1C	.	2.c\	A-	.	.
!	!	!	!	!	!	!LO:TX:t=P:problem:kreska pseudotaktowa	!
.	.	.	.	.	.	2e\	.
!	!	!	!	!LO:TX:t=P:problem:kreska pseudotaktowa	!	!	!
.	.	.	.	4B\	.	.	.
*	*	*Xlig	*	*	*	*	*
=12-	=12-	=12-	=12-	=12-	=12-	=12-	=12-
2F\	.	1D,<	-ue	4A/	.	2d\	Vir-
.	.	.	.	4G/	.	.	.
1A	Vir-	.	.	1F	.	4c/	.
.	.	.	.	.	.	4B/	.
.	.	1D	Vir-	.	.	2A/	.
4G\	.	.	.	4E/	.	1d	.
!LO:TX:t=P:problem:kreska pseudotaktowa	!	!	!	!LO:TX:t=P:problem:kreska pseudotaktowa	!	!	!
4F\	.	.	.	4D/	.	.	.
=13-	=13-	=13-	=13-	=13-	=13-	=13-	=13-
*	*	*lig	*	*	*	*	*
1E	-go	1E	.	1G	-ue	.	.
*	*	*	*	*	*Xij	*	*
!	!	!	!	!	!	!LO:TX:t=P:problem:kreska pseudotaktowa	!
.	.	.	.	.	.	2c/	.
!LO:TX:t=P:problem:kreska pseudotaktowa	!	!LO:SIC:v:t=custos G	!	!LO:TX:t=P:problem:kreska pseudotaktowa	!	!	!
1D	.	1F	.	1A	Vir-	2d\	-go
.	.	.	.	.	.	1f	Ma-
*	*	*Xlig	*	*	*	*	*
!	!	!LO:LB:g=original	!	!	!	!	!
=14-	=14-	=14-	=14-	=14-	=14-	=14-	=14-
*	*	*	*	*lig	*	*	*
2.C/	Ma-	1G,<	-go	1c	-go	.	.
!	!	!	!	!	!	!LO:TX:t=P:problem:kreska pseudotaktowa	!
.	.	.	.	.	.	2e\	.
4BBny/	.	.	.	.	.	.	.
*	*	*lig	*	*	*	*	*
!	!	!	!	!LO:TX:t=P:problem:kreska pseudotaktowa	!	!	!
4GG/	.	1G	Ma-	1B	.	2.d\	-ri-
4AA/	.	.	.	.	.	.	.
4BB/	.	.	.	.	.	.	.
!LO:TX:t=P:problem:kreska pseudotaktowa	!	!	!	!	!	!LO:TX:t=P:problem:kreska pseudotaktowa	!
!	!	!	!	!	!	!LO:SIC:v:t=custos f	!
4C/	.	.	.	.	.	4e\	.
*	*	*	*	*Xlig	*	*	*
!	!	!	!	!	!	!LO:PB:g=original	!
=15-	=15-	=15-	=15-	=15-	=15-	=15-	=15-
1D	.	1F	.	2A/	Ma-	2f\	.
.	.	.	.	1d	.	2d\	.
*	*	*Xlig	*	*	*	*	*
*	*	*lig	*	*	*	*	*
1AA	-ri-	1E	.	.	.	1e	.
!	!	!	!	!LO:TX:t=P:problem:kreska pseudotaktowa	!	!	!
.	.	.	.	2c\	.	.	.
=16-	=16-	=16-	=16-	=16-	=16-	=16-	=16-
!LO:TX:t=P:problem:kreska pseudotaktowa	!	!	!	!	!	!LO:TX:t=P:problem:kreska pseudotaktowa	!
1D	-a	1D	.	2d\	.	1f	-a
!	!	!	!	!LO:TX:t=P:problem:kreska pseudotaktowa	!	!	!
.	.	.	.	2A/	.	.	.
*	*	*Xlig	*	*	*	*	*
*	*	*lig	*	*	*	*	*
2r	.	1C	-ri-	1c	-ri-	1e	cae-
2G\	Cae-	.	.	.	.	.	.
=17-	=17-	=17-	=17-	=17-	=17-	=17-	=17-
!LO:TX:t=P:problem:kreska pseudotaktowa	!	!	!	!LO:TX:t=P:problem:kreska pseudotaktowa	!	!	!
1F	-li	1D	.	0.A	-a	2d\	.
.	.	.	.	.	.	1f	.
*	*	*Xlig	*	*	*	*	*
!LO:SIC:v:t=custos F	!	!	!	!	!	!	!
2D/	Re-	1D	-a	.	.	.	.
!LO:LB:g=original	!	!	!	!	!	!	!
2.F\	.	.	.	.	.	4e\	.
!	!	!	!	!	!	!LO:TX:t=P:problem:kreska pseudotaktowa	!
.	.	.	.	.	.	4d\	.
=18-	=18-	=18-	=18-	=18-	=18-	=18-	=18-
.	.	1F	cae-	.	.	2c/	.
4E\	.	.	.	.	.	.	.
1D	.	.	.	.	.	2d\	.
*	*	*lig	*	*	*	*	*
!	!	!	!	!	!	!LO:TX:t=P:problem:kreska pseudotaktowa	!
.	.	1E	-li	2r	.	1e	.
!	!	!	!	!LO:TX:t=P:problem:kreska pseudotaktowa	!	!	!
!LO:TX:t=P:problem:kreska pseudotaktowa	!	!	!	!LO:SIC:v:t=custos F	!	!	!
2C/	.	.	.	2G/	cae-	.	.
!	!	!	!	!LO:PB:g=original	!	!	!
=19-	=19-	=19-	=19-	=19-	=19-	=19-	=19-
2D/	.	1D	.	2.F/	-li	2A/	.
1F	.	.	.	.	.	2B/	.
.	.	.	.	4G/	.	.	.
*	*	*Xlig	*	*	*	*	*
*	*	*lig	*	*	*	*	*
!	!	!	!	!	!	!LO:TX:t=P:problem:kreska pseudotaktowa	!
.	.	1C	.	2A/	.	1c	-li
!LO:TX:t=P:problem:kreska pseudotaktowa	!	!	!	!	!	!	!
2E\	-gina	.	.	1G	.	.	.
=20-	=20-	=20-	=20-	=20-	=20-	=20-	=20-
1D	.	1D,<	.	.	.	2A/	Re-
!	!	!	!	!LO:TX:t=P:problem:kreska pseudotaktowa	!	!	!
.	.	.	.	2F/	.	2.d\	.
*	*	*Xlig	*	*	*	*	*
2GG,</	.	1D	Re-	2G/	.	.	.
.	.	.	.	.	.	4c/	.
!LO:TX:t=P:problem:kreska pseudotaktowa	!	!	!	!	!	!	!
2GG/	Re-	.	.	2.G/	Re-	4B/	.
!	!	!	!	!	!	!LO:TX:t=P:problem:kreska pseudotaktowa	!
.	.	.	.	.	.	4A/	.
=21-	=21-	=21-	=21-	=21-	=21-	=21-	=21-
2.C/	.	1E	-gi-	.	.	1G	.
.	.	.	.	4F/	.	.	.
.	.	.	.	4E/	.	.	.
!	!	!	!	!LO:TX:t=P:problem:kreska pseudotaktowa	!	!	!
4BB/	-gi-	.	.	4D/	.	.	.
*	*	*lig	*	*	*	*	*
1AA	-na	1F	-na	1C	.	2A/	.
.	.	.	.	.	.	1c	-gi-
=22-	=22-	=22-	=22-	=22-	=22-	=22-	=22-
!LO:TX:t=P:problem:kreska pseudotaktowa	!	!	!	!	!	!	!
1GG	.	1G,<	.	1D	.	.	.
.	.	.	.	.	.	2B/	-na
*	*	*Xlig	*	*	*	*	*
!	!	!	!	!	!	!LO:TX:t=P:problem:kreska pseudotaktowa	!
1.C	mun-	1G	mun-	2.E/	-gi-	1c	.
!	!	!	!	!LO:TX:t=P:problem:kreska pseudotaktowa	!	!	!
.	.	.	.	4F/	-na	.	.
=23-	=23-	=23-	=23-	=23-	=23-	=23-	=23-
*	*	*lig	*	*	*	*	*
.	.	1E	-di	2G/	.	2r	.
!LO:TX:t=P:problem:kreska pseudotaktowa	!	!	!	!	!	!	!
2AA/	-di	.	.	1A	mun-	2c/	mun-
!	!	!	!	!	!	!LO:TX:t=P:problem:kreska pseudotaktowa	!
2D/	.	1D,<	.	.	.	1d	.
!	!	!	!	!LO:TX:t=P:problem:kreska pseudotaktowa	!	!	!
2.F\	et	.	.	2F/	.	.	.
*	*	*Xlig	*	*	*	*	*
=24-	=24-	=24-	=24-	=24-	=24-	=24-	=24-
.	.	1F	et	1A	-di	2c/	-di
4E\	Do-	.	.	.	.	.	.
4D/	.	.	.	.	.	2.f\	et
!LO:TX:t=P:problem:kreska pseudotaktowa	!	!	!	!	!	!	!
4C/	.	.	.	.	.	.	.
1D	.	1F	Do-	1.A	et	.	.
!	!	!	!	!	!	!LO:SIC:v:t=custos d	!
.	.	.	.	.	.	4e\	.
!	!	!	!	!	!	!LO:LB:g=original	!
.	.	.	.	.	.	1d	Do-
=25-	=25-	=25-	=25-	=25-	=25-	=25-	=25-
*	*	*lig	*	*	*	*	*
1AA	-mi-	1E	.	.	.	.	.
!	!	!	!	!LO:TX:t=P:problem:kreska pseudotaktowa	!	!	!
.	.	.	.	2A/	Do-	2c/	-mi-
!LO:TX:t=P:problem:kreska pseudotaktowa	!	!	!	!	!	!LO:TX:t=P:problem:kreska pseudotaktowa	!
1D	-na	1F	.	1A	-mi-	0d	-na
*	*	*Xlig	*	*	*	*	*
=26-	=26-	=26-	=26-	=26-	=26-	=26-	=26-
2r	.	1D	.	1A	-na	.	.
1F	et	.	.	.	.	.	.
*	*	*lig	*	*	*ij	*	*
!	!	!	!	!LO:TX:t=P:problem:kreska pseudotaktowa	!	!	!
.	.	1C	mi-	1c	et	2r	.
!LO:TX:t=P:problem:kreska pseudotaktowa	!	!	!	!	!	!	!
!LO:SIC:v:t=custos D	!	!	!	!	!	!	!
2E\	Do-	.	.	.	.	2e\	et
!LO:LB:g=original	!	!	!	!	!	!	!
=27-	=27-	=27-	=27-	=27-	=27-	=27-	=27-
2.D/	.	1D	.	2B-X\	.	2.f\	.
.	.	.	.	1A	Do-	.	.
!LO:TX:t=P:problem:kreska pseudotaktowa	!	!	!	!	!	!LO:TX:t=P:problem:kreska pseudotaktowa	!
4C/	.	.	.	.	.	4e\	Do-
*	*	*Xlig	*	*	*	*	*
1BB	.	1D,<	-na	.	.	2d\	-mi-
!	!	!	!	!LO:TX:t=P:problem:kreska pseudotaktowa	!	!	!
.	.	.	.	2G/	.	2d\	-na
=28-	=28-	=28-	=28-	=28-	=28-	=28-	=28-
!	!	!LO:SIC:v:t=custos G	!	!	!	!	!
2AA/	.	1E	ſu-	2A/	-mi-	2c/	.
!LO:TX:t=P:problem:kreska pseudotaktowa	!	!	!	!	!	!LO:TX:t=P:problem:kreska pseudotaktowa	!
2C/	-mi-	.	.	2G/	-na	2e\	ſu-
*	*	*	*	*	*Xij	*	*
!	!	!LO:LB:g=original	!	!	!	!	!
1C	-na	1G	-ſci-	1c	ſu-	1e	-ſci-
=29-	=29-	=29-	=29-	=29-	=29-	=29-	=29-
*	*	*lig	*	*	*	*	*
2GG/	ſuſci-	1G	-pe	2.Bny\	-ſci-	2d\	-pe
!LO:TX:t=P:problem:kreska pseudotaktowa	!	!	!	!	!	!LO:TX:t=P:problem:kreska pseudotaktowa	!
2GG/	-pe	.	.	.	.	2d\	tu-
!	!	!	!	!LO:TX:t=P:problem:kreska pseudotaktowa	!	!	!
!	!	!	!	!LO:SIC:v:t=custos d	!	!	!
.	.	.	.	4c\	-pe	.	.
!	!	!	!	!LO:LB:g=original	!	!	!
2D/	.	1A,<	.	2d\	.	2f\	.
2C/	tu-	.	.	2e\	.	2e\	.
*	*	*Xlig	*	*	*	*	*
=30-	=30-	=30-	=30-	=30-	=30-	=30-	=30-
!LO:TX:t=P:problem:kreska pseudotaktowa	!	!	!	!LO:TX:t=P:problem:kreska pseudotaktowa	!	!LO:TX:t=P:problem:kreska pseudotaktowa	!
1D	-o-	1A	tu-	1f	tu-	1d	-o-
2AA/	-rum	1c	-o-	2e\	-o-	2c/	-rum
*	*ij	*	*	*	*	*	*ij
2C/	ſu-	.	.	1A	-rum	2e\	ſu-
=31-	=31-	=31-	=31-	=31-	=31-	=31-	=31-
2D/	-ſci-	1B	.	.	.	2f\	-ſci-
!LO:TX:t=P:problem:kreska pseudotaktowa	!	!	!	!	!	!LO:TX:t=P:problem:kreska pseudotaktowa:między nutą i kropką	!
2E\	-pe	.	.	2G/	.	2.e\	-pe
!	!	!	!	!LO:TX:t=P:problem:kreska pseudotaktowa	!	!	!
1F	tu-	1A	.	1A	.	.	.
.	.	.	.	.	.	4d\	tu-
.	.	.	.	.	.	1d	-o-
=32-	=32-	=32-	=32-	=32-	=32-	=32-	=32-
1E	.	1G	.	2r	.	.	.
*	*	*	*	*	*ij	*	*
.	.	.	.	2e\	ſu-	2c/	.
!	!	!	!	!	!	!LO:TX:t=P:problem:kreska pseudotaktowa	!
1D	-o-	1F	.	2f\	-ſci-	1d	-rum
.	.	.	.	1d	-pe	.	.
=33-	=33-	=33-	=33-	=33-	=33-	=33-	=33-
!LO:TX:t=P:problem:kreska pseudotaktowa	!	!	!	!	!	!	!
1AA	-rum	1E	.	.	.	2r	.
*	*Xij	*	*	*	*	*	*
!	!	!	!	!LO:TX:t=P:problem:kreska pseudotaktowa	!	!	!
.	.	.	.	2c\	tu-	2e\	ſu-
1rD	.	1D	.	1d	-o-	2f\	-ſci-
!	!	!	!	!	!	!LO:TX:t=P:problem:kreska pseudotaktowa	!
!	!	!	!	!	!	!LO:SIC:v:t=custos e	!
.	.	.	.	.	.	2d\	-pe
!	!	!	!	!	!	!LO:LB:g=original	!
=34-	=34-	=34-	=34-	=34-	=34-	=34-	=34-
2rC	.	1C	.	2G/	-rum	1e	tu-
*	*	*	*	*	*Xij	*	*
!LO:TX:t=P:problem:kreska pseudotaktowa	!	!	!	!LO:TX:t=P:problem:kreska pseudotaktowa	!	!	!
2E\	De	.	.	2c\	.	.	.
*	*	*lig	*	*	*	*	*
2F\	no-	1D	-rum	2A/	de	2d\	.
2.D/	.	.	.	1d	no-	1f	.
=35-	=35-	=35-	=35-	=35-	=35-	=35-	=35-
.	.	1F	.	.	.	.	.
4E\	-tas	.	.	.	.	.	.
4F\	.	.	.	4c\	.	4e\	.
!	!	!	!	!LO:TX:t=P:problem:kreska pseudotaktowa	!	!LO:TX:t=P:problem:kreska pseudotaktowa	!
4G\	.	.	.	4B\	-tas	4d\	.
*	*	*Xlig	*	*	*	*	*
!LO:TX:t=P:problem:kreska pseudotaktowa	!	!	!	!	!	!	!
!LO:SIC:v:t=custos G	!	!	!	!	!	!	!
1A	.	1F,<	.	1A	.	2c/	-o-
.	.	.	.	.	.	2d\	-rum
*	*	*	*	*	*	*	*Xij
!LO:LB:g=original	!	!	!	!	!	!	!
=36-	=36-	=36-	=36-	=36-	=36-	=36-	=36-
*	*	*lig	*	*	*	*	*
2G\	de	1E	de	2B\	.	1e	lau-
!	!	!	!	!LO:TX:t=P:problem:kreska pseudotaktowa	!	!	!
4C/	.	.	.	1.c	lau-	.	.
!LO:TX:t=P:problem:kreska pseudotaktowa	!	!	!	!	!	!	!
4D/	.	.	.	.	.	.	.
!	!	!	!	!	!	!LO:TX:t=P:problem:kreska pseudotaktowa	!
4E\	no-	1C	.	.	.	1e	.
4F\	.	.	.	.	.	.	.
4G\	.	.	.	.	.	.	.
4E\	.	.	.	.	.	.	.
*	*	*Xlig	*	*	*	*	*
=37-	=37-	=37-	=37-	=37-	=37-	=37-	=37-
*	*	*lig	*	*	*	*	*
2F\	.	1D	no-	1A	-des	2d\	-des
1D	.	.	.	.	.	2.f\	de
.	.	1E	.	2r	.	.	.
.	.	.	.	.	.	4e\	no-
!LO:TX:t=P:problem:kreska pseudotaktowa	!	!	!	!LO:TX:t=P:problem:kreska pseudotaktowa	!	!LO:TX:t=P:problem:kreska pseudotaktowa	!
2C/	.	.	.	2c\	lau-	2.e\	.
*	*	*Xlig	*	*	*	*	*
=38-	=38-	=38-	=38-	=38-	=38-	=38-	=38-
1D	.	1F	-tas	0A	-des	.	.
.	.	.	.	.	.	4d\	.
.	.	.	.	.	.	1d	.
!LO:TX:t=P:problem:kreska pseudotaktowa	!	!	!	!	!	!	!
*	*	*lig	*	*	*	*	*
1AA	-tas	1E	lau-	.	.	.	.
!	!	!	!	!	!	!LO:TX:t=P:problem:kreska pseudotaktowa	!
.	.	.	.	.	.	2c/	.
=39-	=39-	=39-	=39-	=39-	=39-	=39-	=39-
2A\	lau-	1D	.	2F/	.	2d\	-tas
*	*	*	*	*	*	*	*ij
!	!	!	!	!LO:TX:t=P:problem:kreska pseudotaktowa	!	!	!
2F\	.	.	.	2A/	ſer	1f	lau-
*	*	*Xlig	*	*	*	*	*
2G\	-des	1C	-des	1c	uo-	.	.
!	!	!	!	!	!	!LO:TX:t=P:problem:kreska pseudotaktowa	!
2.A\	ſer-	.	.	.	.	2e\	-des
=40-	=40-	=40-	=40-	=40-	=40-	=40-	=40-
*	*	*lig	*	*	*	*	*
.	.	1D	ſer-	1.A	.	1d	de
4G\	.	.	.	.	.	.	.
4F\	.	.	.	.	.	.	.
!LO:TX:t=P:problem:kreska pseudotaktowa	!	!	!	!	!	!	!
4E\	-uo-	.	.	.	.	.	.
1D	.	1F	.	.	.	2.d\	no-
!	!	!	!	!LO:TX:t=P:problem:kreska pseudotaktowa	!	!	!
!	!	!	!	!LO:SIC:v:t=custos A	!	!	!
.	.	.	.	2B-X\	.	.	.
!	!	!	!	!	!	!LO:TX:t=P:problem:kreska pseudotaktowa	!
.	.	.	.	.	.	4c/	.
!	!	!	!	!LO:LB:g=original	!	!	!
*	*	*Xlig	*	*	*	*	*
=41-	=41-	=41-	=41-	=41-	=41-	=41-	=41-
*	*	*lig	*	*	*	*	*
2.F\	.	1D	.	1A	.	4d\	.
.	.	.	.	.	.	4e\	.
.	.	.	.	.	.	1f	tas
*	*	*	*	*	*	*	*Xij
!LO:TX:t=P:problem:kreska pseudotaktowa	!	!	!	!	!	!	!
4E\	.	.	.	.	.	.	.
4D/	.	1F	.	2.D/	-rum	.	.
4C/	.	.	.	.	.	.	.
!LO:SIC:v:s=1BB-	!	!	!	!	!	!	!
1BB	.	.	.	.	.	2.d\	ſer-
!	!	!	!	!LO:TX:t=P:problem:kreska pseudotaktowa	!	!	!
.	.	.	.	4E/	.	.	.
*	*	*Xlig	*	*	*	*	*
=42-	=42-	=42-	=42-	=42-	=42-	=42-	=42-
!	!	!LO:SIC:v:t=custos E	!	!	!	!	!
.	.	1F	-uo-	4F/	.	.	.
.	.	.	.	4G/	.	4e\	.
!LO:TX:t=P:problem:kreska pseudotaktowa	!	!	!	!	!	!LO:TX:t=P:problem:kreska pseudotaktowa	!
*	*	*	*	*	*ij	*	*
2AA/	.	.	.	2A/	ſer-	2f\	.
!	!	!LO:LB:g=original	!	!	!	!	!
*	*	*lig	*	*	*	*	*
!	!	!	!	!	!	!LO:TX:t=P:problem:kreska pseudotaktowa	!
!	!	!	!	!	!	!LO:SIC:v:t=custos c	!
1GG	-rum	1E	.	2B-\	-uo-	1g	-uo-
!	!	!	!	!LO:TX:t=P:problem:kreska pseudotaktowa	!	!	!
.	.	.	.	2G/	.	.	.
!	!	!	!	!	!	!LO:LB:g=original	!
=43-	=43-	=43-	=43-	=43-	=43-	=43-	=43-
2FF/	.	1F	.	2A/	.	2c,</	-rum
*	*	*	*	*	*	*	*ij
!LO:TX:t=P:problem:kreska pseudotaktowa	!	!	!	!	!	!LO:TX:t=P:problem:kreska pseudotaktowa	!
2FF/	ſer-	.	.	2A/	.	2c/	ſer-
!	!	!	!	!	!	!LO:TX:t=P:problem:kreska pseudotaktowa	!
*lig	*	*Xlig	*	*	*	*	*
!LO:SIC:v:s=1BB-	!	!	!	!	!	!	!
*	*	*lig	*	*lig	*	*lig	*
1BB	-uo-	1D	.	1B-X	.	1d	-uo-
=44-	=44-	=44-	=44-	=44-	=44-	=44-	=44-
1AA	.	1C	.	1c	.	1e	.
*Xlig	*	*Xlig	*	*Xlig	*	*Xlig	*
!LO:N:vis=0	!	!LO:N:vis=0	!	!LO:N:vis=0	!	!LO:N:vis=0	!
1Dl;>	-rum	1Dl;;	-rum	1Al;<	-rum	1dl;;	-rum
*	*	*	*	*	*Xij	*	*Xij
==	==	==	==	==	==	==	==
*-	*-	*-	*-	*-	*-	*-	*-
!!!system-decoration: [(s1,s2,s3,s4)]
!!!RDF**kern: > = above
!!!RDF**kern: < = below
!!!RDF**kern: l = terminal long
!!!EED: Antoni Szymański
!!!EST: 2021-04-03
!!!ENC: Andrzej Borzym
!!!END: 2021-02-23
